webapp/src/main/webapp/src/assets/svgs/assessment-icons/Math_8_Analyze-Solve-Linear-Equations.svg

<?xml version="1.0" encoding="utf-8"?>
<!-- Generator: Adobe Illustrator 24.0.0, SVG Export Plug-In . SVG Version: 6.00 Build 0)  -->
<svg version="1.1" id="Layer_1" xmlns="http://www.w3.org/2000/svg" xmlns:xlink="http://www.w3.org/1999/xlink" x="0px" y="0px"
	 viewBox="0 0 100 100" style="enable-background:new 0 0 100 100;" xml:space="preserve">
<style type="text/css">
	.st0{fill:none;}
	.st1{fill:#FFFFFF;}
	.st2{fill:#FFFFFF;stroke:#FFFFFF;stroke-width:0.25;stroke-miterlimit:10;}
	.st3{fill:none;stroke:#000000;stroke-width:0.25;stroke-linecap:round;stroke-miterlimit:10;}
	.st4{fill:#D9D9D9;}
	.st5{fill:none;stroke:#000000;stroke-width:2;stroke-linejoin:round;stroke-miterlimit:10;}
	.st6{fill:none;stroke:#000000;stroke-width:0.4396;stroke-miterlimit:10;}
	.st7{fill:none;stroke:#000000;stroke-linecap:round;stroke-linejoin:round;}
	.st8{fill:none;stroke:#000000;stroke-linecap:round;stroke-linejoin:round;stroke-miterlimit:10;}
</style>
<path d="M99.98,8.22V7.97h-7.93V0.01H91.8v7.96h-4.36l1.09-5.02l-4.56,1.46v-4.4h-0.25v4.48L79.03,6l2.17,1.97h-5.32V0.01h-0.25
	v7.96H67.8V0.01h-0.25v7.96h-7.83V0.01h-0.25v7.96h-7.83V0.01h-0.25v7.96h-7.83V0.01h-0.25v7.96h-7.83V0.01h-0.25v7.96H27.4V0.01
	h-0.25v7.96h-7.83V0.01h-0.25v7.96h-7.83V0.01h-0.25v7.96H3.01v-7.97h-3v99.95h0v0.03h99.95v-3h-7.91v-7.96h7.93v-0.25h-7.93v-7.83
	h7.93v-0.25h-7.93v-7.83h7.93v-0.25h-7.93v-7.83h7.93v-0.25h-7.93V56.7h7.93v-0.25h-7.93v-7.83h7.93v-0.25h-7.93v-3.69l3-4.14h4.92
	v-0.25h-4.74l0.72-1l-3.91-0.41v-6.43h7.93v-0.25h-7.93v-7.83h7.93v-0.25h-7.93V16.3h7.93v-0.25h-7.93V8.22H99.98z M87.33,17.76
	c-0.22,0.16-0.54,0.25-0.97,0.25h-1.7l0.32-1.62h1.68c0.66,0,1,0.22,1,0.66C87.66,17.36,87.55,17.6,87.33,17.76z M87.41,20.36
	c0,0.33-0.12,0.58-0.36,0.74c-0.24,0.17-0.57,0.25-1,0.25h-2.06l0.34-1.7h2.1c0.3,0,0.54,0.06,0.72,0.17S87.41,20.12,87.41,20.36z
	 M87.66,41.9l-3.7,1.65v-3.01h3.09L87.66,41.9z M83.72,43.66l-7.83,3.5v-6.62h7.83V43.66z M87.07,52.6H84.9l1.61-2.72L87.07,52.6z
	 M83.97,50.38v-1.76h1.13L83.97,50.38z M83.72,50.77l-3.34,5.21h2.51l0.83-1.4v1.87h-7.83v-7.1l1.63-0.73h6.2V50.77z M11.23,78.21
	l7.83-3.5v3.31l-2.42,2.66h-5.41V78.21z M10.98,80.69H5.67l5.31-2.37V80.69z M67.55,24.58l-6.92,7.63h-0.91v-7.83h7.83V24.58z
	 M67.55,50.88l-7.83,3.5v-5.75h7.83V50.88z M67.8,48.62h4.81l-4.81,2.15V48.62z M59.47,33.49l-6.17,6.8h-1.66v-7.83h7.83V33.49z
	 M59.72,32.46h0.68l-0.68,0.75V32.46z M51.39,42.39l-5.42,5.97h-2.41v-7.83h7.83V42.39z M51.64,40.54h1.43l-1.43,1.58V40.54z
	 M51.39,58.09l-7.83,3.5V56.7h7.83V58.09z M51.64,56.7h2.87l-2.87,1.28V56.7z M35.23,64.78v0.53l-3.24,1.44l1.79-1.97H35.23z
	 M34.01,64.53l1.22-1.34v1.34H34.01z M35.48,64.78h0.93l-0.93,0.42V64.78z M35.48,64.53v-1.62l5.63-6.21h2.2v5l-6.34,2.83H35.48z
	 M43.31,51.3l-4.67,5.15h-3.16v-7.83h7.83V51.3z M43.56,48.62h2.18l-2.18,2.41V48.62z M43.31,54.28v2.17h-1.97L43.31,54.28z
	 M38.41,56.7l-2.94,3.24V56.7H38.41z M43.31,63.89v0.64h-1.43L43.31,63.89z M43.56,63.78l7.83-3.5v4.25h-7.83V63.78z M43.56,56.45
	V54l4.88-5.38h2.95v7.83H43.56z M48.67,48.37l2.72-3v3H48.67z M43.31,48.37h-7.83v-7.83h7.83V48.37z M35.23,48.37H27.4v-7.83h7.83
	V48.37z M35.23,48.62v7.83H27.4v-7.83H35.23z M35.23,56.7v3.51l-3.92,4.32H27.4V56.7H35.23z M31.08,64.78l-3.63,4L27.4,68.8v-4.02
	H31.08z M27.15,72.09v0.52h-0.47L27.15,72.09z M23.98,72.61h-0.2l0.34-0.15L23.98,72.61z M27.4,71.82l1.26-1.39l6.57-2.93v5.11H27.4
	V71.82z M35.48,67.38l5.84-2.61h1.99v7.83h-7.83V67.38z M43.56,64.78h7.83v7.83h-7.83V64.78z M51.64,64.78h7.83v7.83h-7.83V64.78z
	 M51.64,64.53v-4.36l7.78-3.47h0.06v7.83H51.64z M55.07,56.45h-3.43v-7.83h7.83v5.87L55.07,56.45z M51.64,48.37v-3.27l4.13-4.56h3.7
	v7.83H51.64z M56,40.29l3.47-3.83v3.83H56z M51.39,40.29h-7.83v-7.83h7.83V40.29z M43.31,40.29h-7.83v-7.83h7.83V40.29z
	 M35.23,40.29H27.4v-7.83h7.83V40.29z M27.15,40.29h-7.83v-7.83h7.83V40.29z M27.15,40.54v7.83h-7.83v-7.83H27.15z M27.15,48.62
	v7.83h-7.83v-7.83H27.15z M27.15,56.7v7.83h-7.83V56.7H27.15z M27.15,64.78v4.14l-7.83,3.5v-7.63H27.15z M23.21,72.86h0.54
	l-4.44,4.89V74.6L23.21,72.86z M26.45,72.86h0.7v7.83h-7.8L26.45,72.86z M27.4,72.86h7.83v7.83H27.4V72.86z M35.48,72.86h7.83v7.83
	h-7.83V72.86z M43.56,72.86h7.83v7.83h-7.83V72.86z M51.64,72.86h7.83v7.83h-7.83V72.86z M59.72,72.86h7.83v7.83h-7.83V72.86z
	 M59.72,72.61v-7.83h7.83v7.83H59.72z M59.72,64.53V56.7h7.83v7.83H59.72z M59.98,56.45l7.58-3.38v3.38H59.98z M59.72,48.37v-7.83
	h7.83v7.83H59.72z M59.72,40.29v-4.1l3.38-3.73h4.45v7.83H59.72z M63.33,32.21l4.22-4.65v4.65H63.33z M59.47,32.21h-7.83v-7.83h7.83
	V32.21z M51.39,32.21h-7.83v-7.83h7.83V32.21z M43.31,32.21h-7.83v-7.83h7.83V32.21z M35.23,32.21H27.4v-7.83h7.83V32.21z
	 M27.15,32.21h-7.83v-7.83h7.83V32.21z M19.06,32.21h-7.83v-7.83h7.83V32.21z M19.06,32.46v7.83h-7.83v-7.83H19.06z M19.06,40.54
	v7.83h-7.83v-7.83H19.06z M19.06,48.62v7.83h-7.83v-7.83H19.06z M19.06,56.7v7.83h-7.83V56.7H19.06z M19.06,64.78v7.74l-0.2,0.09
	h-7.63v-7.83H19.06z M18.31,72.86l-7.07,3.16v-3.16H18.31z M16.42,80.94l-5.19,5.72v-5.72H16.42z M19.06,81v7.77h-7.05L19.06,81z
	 M19.31,80.94h7.83v7.83h-7.83V80.94z M27.4,80.94h7.83v7.83H27.4V80.94z M35.48,80.94h7.83v7.83h-7.83V80.94z M43.56,80.94h7.83
	v7.83h-7.83V80.94z M51.64,80.94h7.83v7.83h-7.83V80.94z M59.72,80.94h7.83v7.83h-7.83V80.94z M67.8,80.94h7.83v7.83H67.8V80.94z
	 M67.8,80.69v-7.83h7.83v7.83H67.8z M67.8,72.61v-7.83h7.83v7.83H67.8z M67.8,64.53V56.7h7.83v7.83H67.8z M67.8,56.45v-3.49
	l7.83-3.5v6.99H67.8z M73.17,48.37H67.8v-7.83h7.83v6.73L73.17,48.37z M67.8,40.29v-7.83h7.83v7.83H67.8z M67.8,32.21v-4.93
	l2.63-2.9h5.2v7.83H67.8z M70.66,24.13l4.97-5.48v5.48H70.66z M67.96,24.13H67.8V16.3h7.26L67.96,24.13z M67.55,24.13h-7.83V16.3
	h7.83V24.13z M59.47,24.13h-7.83V16.3h7.83V24.13z M51.39,24.13h-7.83V16.3h7.83V24.13z M43.31,24.13h-7.83V16.3h7.83V24.13z
	 M35.23,24.13H27.4V16.3h7.83V24.13z M27.15,24.13h-7.83V16.3h7.83V24.13z M19.06,24.13h-7.83V16.3h7.83V24.13z M10.98,24.13H3.01
	V16.3h7.97V24.13z M10.98,24.38v7.83H3.01v-7.83H10.98z M10.98,32.46v7.83H3.01v-7.83H10.98z M10.98,40.54v7.83H3.01v-7.83H10.98z
	 M10.98,48.62v7.83H3.01v-7.83H10.98z M10.98,56.7v7.83H3.01V56.7H10.98z M10.98,64.78v7.83H3.01v-7.83H10.98z M10.98,72.86v3.27
	l-7.97,3.56v-6.83H10.98z M3.01,81.88l2.1-0.94h5.87v5.99l-1.67,1.84H3.01V81.88z M9.09,89.02l-6.08,6.7v-6.7H9.09z M10.98,89.91
	v7.07H4.57L10.98,89.91z M11.23,89.63l0.56-0.61h7.27v7.96h-7.83V89.63z M19.31,89.02h7.83v7.96h-7.83V89.02z M27.4,89.02h7.83v7.96
	H27.4V89.02z M35.48,89.02h7.83v7.96h-7.83V89.02z M43.56,89.02h7.83v7.96h-7.83V89.02z M51.64,89.02h7.83v7.96h-7.83V89.02z
	 M59.72,89.02h7.83v7.96h-7.83V89.02z M67.8,89.02h7.83v7.96H67.8V89.02z M75.89,89.02h7.83v7.96h-7.83V89.02z M75.89,88.77v-7.83
	h7.83v7.83H75.89z M75.89,80.69v-7.83h7.83v7.83H75.89z M75.89,72.61v-7.83h7.83v7.83H75.89z M75.89,64.53V56.7h7.83v7.83H75.89z
	 M78.08,48.37l5.64-2.52v2.52H78.08z M75.89,40.29v-7.83h7.83v7.83H75.89z M75.89,32.21v-7.83h7.83v7.83H75.89z M75.89,24.13v-5.76
	l1.88-2.07h4.89l-1.35,6.77h2.42v1.06H75.89z M82.98,14.67l-0.28,1.38h-4.71l5.47-6.03l0.26,0.23v4.42H82.98z M81.48,8.22l0.51,0.46
	l-6.1,6.72V8.22H81.48z M75.64,8.22v7.45l-0.34,0.38H67.8V8.22H75.64z M67.55,8.22v7.83h-7.83V8.22H67.55z M59.47,8.22v7.83h-7.83
	V8.22H59.47z M51.39,8.22v7.83h-7.83V8.22H51.39z M43.31,8.22v7.83h-7.83V8.22H43.31z M35.23,8.22v7.83H27.4V8.22H35.23z
	 M27.15,8.22v7.83h-7.83V8.22H27.15z M19.06,8.22v7.83h-7.83V8.22H19.06z M10.98,8.22v7.83H3.01V8.22H10.98z M91.8,96.98h-7.83
	v-7.96h7.83V96.98z M91.8,88.77h-7.83v-7.83h7.83V88.77z M91.8,80.69h-7.83v-7.83h7.83V80.69z M91.8,72.61h-7.83v-7.83h7.83V72.61z
	 M91.8,64.53h-7.83V56.7h7.83V64.53z M91.8,56.45h-7.83v-2.1h3.46l0.34,1.63h2.36l-1.78-7.36h3.45V56.45z M91.8,48.37h-3.51
	l-0.19-0.79h-2.34l-0.51,0.79h-1.29v-2.63l4.51-2.01l1.63,3.64l1.69-2.34V48.37z M91.8,38.86l-5.76-0.6l0.91,2.03h-2.98v-7.83h7.83
	V38.86z M91.8,32.21h-7.83v-7.83h7.83V32.21z M91.8,24.13h-7.83v-1.06h1.95c1.14,0,2.07-0.23,2.78-0.68s1.07-1.11,1.07-1.99
	c0-0.38-0.1-0.72-0.29-1S89,18.9,88.64,18.74c0.47-0.2,0.84-0.48,1.1-0.83c0.26-0.36,0.4-0.78,0.4-1.27c0-0.12-0.02-0.23-0.04-0.34
	h1.69V24.13z M91.8,16.05h-1.76c-0.11-0.35-0.32-0.64-0.65-0.87c-0.5-0.34-1.22-0.51-2.17-0.51h-3.26v-4.19l2.45,2.22l0.97-4.48
	h4.42V16.05z"/>
</svg>

<svg id="Layer_1" data-name="Layer 1" xmlns="http://www.w3.org/2000/svg" viewBox="0 0 100 100"><defs><style>.cls-1{fill:#231f20;}</style></defs><title> </title><path class="cls-1" d="M100,8.22V8H92.05V0H91.8V8H87.44l1.08-5L84,4.41V0h-.25V4.49L79,6,81.2,8H75.89V0h-.25V8H67.8V0h-.25V8H59.72V0h-.25V8H51.64V0h-.25V8H43.56V0h-.25V8H35.48V0h-.25V8H27.4V0h-.25V8H19.31V0h-.25V8H11.23V0H11V8H3V0H0v100H0v0H100V97H92.05V89H100v-.25H92.05V80.94H100v-.25H92.05V72.86H100v-.25H92.05V64.78H100v-.25H92.05V56.7H100v-.25H92.05V48.62H100v-.25H92.05V44.68l3-4.14H100v-.25H95.24l.72-1-3.91-.41V32.46H100v-.25H92.05V24.38H100v-.25H92.05V16.3H100v-.25H92.05V8.22ZM87.33,17.76a1.56,1.56,0,0,1-1,.25h-1.7L85,16.39h1.68c.67,0,1,.22,1,.66A.83.83,0,0,1,87.33,17.76Zm.08,2.6a.83.83,0,0,1-.36.74,1.7,1.7,0,0,1-1,.26H84l.33-1.71h2.1a1.32,1.32,0,0,1,.72.17A.61.61,0,0,1,87.41,20.36Zm.25,21.54L84,43.55v-3h3.09Zm-3.94,1.76-7.83,3.5V40.54h7.83Zm3.35,8.94H84.9l1.61-2.73ZM84,50.38V48.62H85.1Zm-.25.39L80.37,56h2.51l.84-1.4v1.87H75.89v-7.1l1.63-.73h6.2ZM11.23,78.21l7.83-3.5V78l-2.41,2.66H11.23ZM11,80.69H5.67L11,78.32ZM67.55,24.58l-6.92,7.63h-.91V24.38h7.83Zm0,26.3-7.83,3.49V48.62h7.83Zm.25-2.26h4.81L67.8,50.76ZM59.47,33.49l-6.17,6.8H51.64V32.46h7.83Zm.25-1h.69l-.69.75Zm-8.33,9.93-5.42,6H43.56V40.54h7.83Zm.25-1.85h1.43l-1.43,1.58Zm-.25,17.55-7.83,3.5V56.7h7.83Zm.25-1.39h2.87L51.64,58ZM35.23,64.78v.53L32,66.75l1.79-2ZM34,64.53l1.22-1.34v1.34Zm1.47.25h.93l-.93.42Zm0-.25V62.91l5.63-6.21h2.2v5L37,64.53ZM43.31,51.3l-4.67,5.15H35.48V48.62h7.83Zm.25-2.68h2.18L43.56,51Zm-.25,5.66v2.17h-2Zm-4.9,2.42-2.93,3.23V56.7Zm4.9,7.19v.64H41.88Zm.25-.11,7.83-3.5v4.25H43.56Zm0-7.33V54l4.88-5.38h3v7.83Zm5.11-8.08,2.72-3v3Zm-5.36,0H35.48V40.54h7.83Zm-8.08,0H27.4V40.54h7.83Zm0,.25v7.83H27.4V48.62Zm0,8.08v3.51l-3.92,4.32H27.4V56.7Zm-4.15,8.08-3.62,4-.06,0v-4Zm-3.93,7.31v.52h-.47ZM24,72.61h-.21l.35-.15Zm3.42-.79,1.25-1.39,6.58-2.93v5.11H27.4Zm8.08-4.44,5.84-2.6h2v7.83H35.48Zm8.08-2.6h7.83v7.83H43.56Zm8.08,0h7.83v7.83H51.64Zm0-.25V60.17l7.78-3.47h0v7.83Zm3.43-8.08H51.64V48.62h7.83v5.86Zm-3.43-8.08V45.09l4.13-4.55h3.7v7.83ZM56,40.29l3.47-3.83v3.83Zm-4.61,0H43.56V32.46h7.83Zm-8.08,0H35.48V32.46h7.83Zm-8.08,0H27.4V32.46h7.83Zm-8.08,0H19.31V32.46h7.84Zm0,.25v7.83H19.31V40.54Zm0,8.08v7.83H19.31V48.62Zm0,8.08v7.83H19.31V56.7Zm0,8.08v4.13l-7.84,3.5V64.78Zm-3.94,8.08h.54l-4.44,4.89V74.6Zm3.24,0h.7v7.83h-7.8Zm.95,0h7.83v7.83H27.4Zm8.08,0h7.83v7.83H35.48Zm8.08,0h7.83v7.83H43.56Zm8.08,0h7.83v7.83H51.64Zm8.08,0h7.83v7.83H59.72Zm0-.25V64.78h7.83v7.83Zm0-8.08V56.7h7.83v7.83ZM60,56.45l7.57-3.38v3.38Zm-.26-8.08V40.54h7.83v7.83Zm0-8.08v-4.1l3.39-3.73h4.44v7.83Zm3.61-8.08,4.22-4.66v4.66Zm-3.86,0H51.64V24.38h7.83Zm-8.08,0H43.56V24.38h7.83Zm-8.08,0H35.48V24.38h7.83Zm-8.08,0H27.4V24.38h7.83Zm-8.08,0H19.31V24.38h7.84Zm-8.09,0H11.23V24.38h7.83Zm0,.25v7.83H11.23V32.46Zm0,8.08v7.83H11.23V40.54Zm0,8.08v7.83H11.23V48.62Zm0,8.08v7.83H11.23V56.7Zm0,8.08v7.74l-.19.09H11.23V64.78Zm-.75,8.08L11.23,76V72.86Zm-1.89,8.08-5.19,5.72V80.94Zm2.64.06v7.77H12Zm.25-.06h7.84v7.83H19.31Zm8.09,0h7.83v7.83H27.4Zm8.08,0h7.83v7.83H35.48Zm8.08,0h7.83v7.83H43.56Zm8.08,0h7.83v7.83H51.64Zm8.08,0h7.83v7.83H59.72Zm8.08,0h7.84v7.83H67.8Zm0-.25V72.86h7.84v7.83Zm0-8.08V64.78h7.84v7.83Zm0-8.08V56.7h7.84v7.83Zm0-8.08V53l7.84-3.49v7Zm5.37-8.08H67.8V40.54h7.84v6.73ZM67.8,40.29V32.46h7.84v7.83Zm0-8.08V27.28l2.64-2.9h5.2v7.83Zm2.86-8.08,5-5.48v5.48Zm-2.7,0H67.8V16.3h7.27Zm-.41,0H59.72V16.3h7.83Zm-8.08,0H51.64V16.3h7.83Zm-8.08,0H43.56V16.3h7.83Zm-8.08,0H35.48V16.3h7.83Zm-8.08,0H27.4V16.3h7.83Zm-8.08,0H19.31V16.3h7.84Zm-8.09,0H11.23V16.3h7.83Zm-8.08,0H3V16.3h8Zm0,.25v7.83H3V24.38Zm0,8.08v7.83H3V32.46Zm0,8.08v7.83H3V40.54Zm0,8.08v7.83H3V48.62Zm0,8.08v7.83H3V56.7Zm0,8.08v7.83H3V64.78Zm0,8.08v3.27L3,79.69V72.86Zm-8,9,2.1-.94H11v6L9.32,88.77H3ZM9.09,89,3,95.72V89Zm1.89.89V97H4.57Zm.25-.28.56-.61h7.27v8H11.23ZM19.31,89h7.84v8H19.31Zm8.09,0h7.83v8H27.4Zm8.08,0h7.83v8H35.48Zm8.08,0h7.83v8H43.56Zm8.08,0h7.83v8H51.64Zm8.08,0h7.83v8H59.72Zm8.08,0h7.84v8H67.8Zm8.09,0h7.83v8H75.89Zm0-.25V80.94h7.83v7.83Zm0-8.08V72.86h7.83v7.83Zm0-8.08V64.78h7.83v7.83Zm0-8.08V56.7h7.83v7.83Zm2.19-16.16,5.64-2.52v2.52Zm-2.19-8.08V32.46h7.83v7.83Zm0-8.08V24.38h7.83v7.83Zm0-8.08V18.37l1.88-2.07h4.88L81.3,23.07h2.42v1.06ZM83,14.67l-.28,1.38H78l5.47-6,.26.23v4.42Zm-1.5-6.45.5.46-6.09,6.71V8.22Zm-5.84,0v7.45l-.35.38H67.8V8.22Zm-8.09,0v7.83H59.72V8.22Zm-8.08,0v7.83H51.64V8.22Zm-8.08,0v7.83H43.56V8.22Zm-8.08,0v7.83H35.48V8.22Zm-8.08,0v7.83H27.4V8.22Zm-8.08,0v7.83H19.31V8.22Zm-8.09,0v7.83H11.23V8.22ZM11,8.22v7.83H3V8.22ZM91.8,97H84V89H91.8Zm0-8.21H84V80.94H91.8Zm0-8.08H84V72.86H91.8Zm0-8.08H84V64.78H91.8Zm0-8.08H84V56.7H91.8Zm0-8.08H84v-2.1h3.46L87.77,56h2.36l-1.78-7.36H91.8Zm0-8.08H88.29l-.19-.79H85.76l-.5.79H84V45.74l4.51-2,1.62,3.64L91.8,45Zm0-9.51L86,38.26l.91,2H84V32.46H91.8Zm0-6.65H84V24.38H91.8Zm0-8.08H84V23.07h2a5,5,0,0,0,2.78-.68,2.18,2.18,0,0,0,1.07-2,1.79,1.79,0,0,0-.29-1,2,2,0,0,0-.84-.66,2.58,2.58,0,0,0,1.11-.84,2.05,2.05,0,0,0,.39-1.26,1.87,1.87,0,0,0,0-.34H91.8Zm0-8.08H90a1.59,1.59,0,0,0-.65-.87,3.83,3.83,0,0,0-2.16-.51H84V10.48l2.45,2.22,1-4.48H91.8Z"/></svg>
